X:1652
T:Boarischer
C:Innviertel
M:2/4
L:1/16
K:G
dBdB e2e2|dBdB G2G2|c2c2 FEF2|B2B2 G4|\
dBdB e2e2|dBdB G2G2|c2c2 F2EF|1G2B2G4:|2G2B2G2||
|:D2|D4EFGA|B4BDGB|ADFA d2d2|BDGB d2d2|\
D4EFGA|B4BDGB|ADFA dcBA|1G2B2G2:|2G2B2G4|]
